packages/kaspersky-hexa-ui-icons/src/iconsSVGs/16/HomeDevice.svg

<svg width="16" height="16" viewBox="0 0 16 16" fill="none" xmlns="http://www.w3.org/2000/svg">
<path fill-rule="evenodd" clip-rule="evenodd" d="M7.58662 0.912571C7.82649 0.715341 8.17238 0.715341 8.41225 0.912571L12.6753 4.4177C12.8254 4.54117 12.9124 4.72537 12.9124 4.91978V9.01386C12.9124 9.92513 12.1737 10.6639 11.2624 10.6639H8.6501V11.5229C9.0114 11.6836 9.30213 11.9743 9.46293 12.3355H14.3752C14.7342 12.3355 15.0252 12.6265 15.0252 12.9855C15.0252 13.3445 14.7342 13.6355 14.3752 13.6355H9.46296C9.21381 14.1953 8.65272 14.5855 8.00049 14.5855C7.34825 14.5855 6.78717 14.1953 6.53802 13.6355H1.62412C1.26514 13.6355 0.974121 13.3445 0.974121 12.9855C0.974121 12.6265 1.26514 12.3355 1.62412 12.3355H6.53804C6.69873 11.9745 6.98916 11.684 7.3501 11.5233V10.6639H4.73642C3.82515 10.6639 3.08643 9.92513 3.08643 9.01386V4.91978C3.08643 4.72537 3.17344 4.54117 3.32361 4.4177L7.58662 0.912571ZM8.6501 9.36386V7.43401C8.6501 7.07502 8.35908 6.78401 8.0001 6.78401C7.64111 6.78401 7.3501 7.07502 7.3501 7.43401V9.36386H4.73642C4.54313 9.36386 4.38643 9.20716 4.38643 9.01386V5.22684L7.99944 2.25615L11.6124 5.22684V9.01386C11.6124 9.20716 11.4557 9.36386 11.2624 9.36386H8.6501Z" fill="black"/>
</svg>

<svg xmlns="http://www.w3.org/2000/svg" width="16" height="16" fill="none" viewBox="0 0 16 16"><path fill="#000" fill-rule="evenodd" d="M7.5866.9126a.65.65 0 0 1 .8257 0l4.263 3.5051a.65.65 0 0 1 .2371.502V9.014c0 .9112-.7387 1.65-1.65 1.65H8.6501v.859a1.606 1.606 0 0 1 .8128.8126h4.9123a.65.65 0 1 1 0 1.3H9.463c-.2492.5598-.8103.95-1.4625.95-.6523 0-1.2133-.3902-1.4625-.95H1.6241a.65.65 0 1 1 0-1.3h4.914a1.606 1.606 0 0 1 .812-.8122v-.8594H4.7364c-.9112 0-1.65-.7388-1.65-1.65V4.9198a.65.65 0 0 1 .2372-.5021zm1.0635 8.4513V7.434a.65.65 0 0 0-1.3 0v1.93H4.7364a.35.35 0 0 1-.35-.35V5.227l3.613-2.9707 3.613 2.9706v3.787a.35.35 0 0 1-.35.35z"/></svg>
